X:976
T:Lord Massereene
R:Other
C:Turlough Carolan
O:Ireland
B:The Complete Works of O'Carolan
S:The Complete Works of O'Carolan
Z:Transcription, chords:Mike Long
M:C|
L:1/8
K:F
"Dm"d4 A2d2|F2d2 E2d2|"Am"e4 c2e2|"G"fgfe d2a2|\
"Dm"agf2 "C"efge|"Dm"defg a2A2|\
"C"G2G2 G2A2|GFGA c2A2|
"Dm"GFED "Am"C2A,2|\
"G"G,2A,2 "C"C2D2|"Dm"AGFE "Am"DEDC|\
"F"A,2C2 "C"D2E2|"Dm"F4 E2F2|"C"G4 F2G2|\
"Dm"{B}A2F2 "Am"{d}c2A2|"G"GFED "Dm"D4:|
|:"Dm"a2a2 a2a2|b2a2 g2f2|b2a2 g2f2|\
"Am"efed c2BA|"Dm"defe defe|"C"cege cege|
"Dm"dfaf dfaf|"C"gece gece|\
"F"f2c2 A2F2|"Dm"d2d2 dcBA|\
"Bb"B2A2 AGF2|"C"EFED C4|"Dm"A,2D2 DEF2|
"C"E2C2 EFG2|"Dm"F2D2 FGAG|\
"F"F2A2 c4|"Dm"dcde f2d2|"C"edef g2e2|\
"Dm"a2d2 "Am"dcAG|"Dm"A2d2 d4:|
